humanity-icon-theme/Humanity/animations/48/brasero-disc-95.svg

<?xml version="1.0" encoding="UTF-8" standalone="no"?>
<!-- Created with Inkscape (http://www.inkscape.org/) -->
<svg
   xmlns:svg="http://www.w3.org/2000/svg"
   xmlns="http://www.w3.org/2000/svg"
   xmlns:xlink="http://www.w3.org/1999/xlink"
   version="1.0"
   width="48"
   height="48"
   id="svg3274">
  <defs
     id="defs3276">
    <linearGradient
       id="linearGradient23419">
      <stop
         id="stop23421"
         style="stop-color:#000000;stop-opacity:1"
         offset="0" />
      <stop
         id="stop23423"
         style="stop-color:#000000;stop-opacity:0"
         offset="1" />
    </linearGradient>
    <radialGradient
       cx="23.334524"
       cy="41.63604"
       r="22.627417"
       fx="23.334524"
       fy="41.63604"
       id="radialGradient2463"
       xlink:href="#linearGradient23419"
       gradientUnits="userSpaceOnUse"
       gradientTransform="matrix(0.9722718,0,0,0.2872354,1.3124992,27.540524)" />
    <linearGradient
       id="linearGradient3772">
      <stop
         id="stop3774"
         style="stop-color:#b4b4b4;stop-opacity:1"
         offset="0" />
      <stop
         id="stop3776"
         style="stop-color:#969696;stop-opacity:1"
         offset="1" />
    </linearGradient>
    <linearGradient
       x1="-21.915663"
       y1="3"
       x2="-21.915663"
       y2="45.032898"
       id="linearGradient2460"
       xlink:href="#linearGradient3772"
       gradientUnits="userSpaceOnUse"
       gradientTransform="translate(50.26506,0)" />
    <linearGradient
       x1="12.2744"
       y1="32.4165"
       x2="35.391201"
       y2="14.2033"
       id="linearGradient3263"
       gradientUnits="userSpaceOnUse">
      <stop
         id="stop3265"
         style="stop-color:#dedbde;stop-opacity:1"
         offset="0" />
      <stop
         id="stop3267"
         style="stop-color:#e6e6e6;stop-opacity:1"
         offset="0.5" />
      <stop
         id="stop3269"
         style="stop-color:#d2d2d2;stop-opacity:1"
         offset="1" />
    </linearGradient>
    <linearGradient
       x1="12.2744"
       y1="32.4165"
       x2="35.391201"
       y2="14.2033"
       id="linearGradient2458"
       xlink:href="#linearGradient3263"
       gradientUnits="userSpaceOnUse"
       gradientTransform="matrix(0,1.1714389,-1.1714389,0,51.060244,-4.11454)" />
    <linearGradient
       id="linearGradient3428">
      <stop
         id="stop3430"
         style="stop-color:#aaaaaa;stop-opacity:1"
         offset="0" />
      <stop
         id="stop3432"
         style="stop-color:#d4d4d4;stop-opacity:1"
         offset="1" />
    </linearGradient>
    <linearGradient
       x1="21.448364"
       y1="15.5"
       x2="21.448364"
       y2="32.509201"
       id="linearGradient2454"
       xlink:href="#linearGradient3428"
       gradientUnits="userSpaceOnUse"
       gradientTransform="matrix(0.9375,0,0,0.9375,1.5,1.5)" />
    <linearGradient
       id="linearGradient3487">
      <stop
         id="stop3489"
         style="stop-color:#e6cde2;stop-opacity:1"
         offset="0" />
      <stop
         id="stop3491"
         style="stop-color:#e6cde2;stop-opacity:0"
         offset="1" />
    </linearGradient>
    <linearGradient
       x1="20.580074"
       y1="10.774516"
       x2="24.27351"
       y2="9.8622112"
       id="linearGradient2451"
       xlink:href="#linearGradient3487"
       gradientUnits="userSpaceOnUse"
       gradientTransform="matrix(0.9996011,2.824295e-2,-2.824295e-2,0.9996011,0.6924114,-0.6708346)"
       spreadMethod="reflect" />
    <linearGradient
       id="linearGradient3839">
      <stop
         id="stop3841"
         style="stop-color:#ffed8c;stop-opacity:1"
         offset="0" />
      <stop
         id="stop3843"
         style="stop-color:#fb9858;stop-opacity:1"
         offset="0.26238" />
      <stop
         id="stop3845"
         style="stop-color:#dc572a;stop-opacity:1"
         offset="0.66093999" />
      <stop
         id="stop3847"
         style="stop-color:#9f3110;stop-opacity:1"
         offset="1" />
    </linearGradient>
    <radialGradient
       cx="8.8912868"
       cy="12.12289"
       r="11"
       fx="8.8912868"
       fy="12.12289"
       id="radialGradient3259"
       xlink:href="#linearGradient3839"
       gradientUnits="userSpaceOnUse"
       gradientTransform="matrix(0,3.3265365,-4.3468267,0,76.259055,-11.264654)" />
    <linearGradient
       id="linearGradient6036">
      <stop
         id="stop6038"
         style="stop-color:#ffffff;stop-opacity:1"
         offset="0" />
      <stop
         id="stop6040"
         style="stop-color:#ffffff;stop-opacity:0"
         offset="1" />
    </linearGradient>
    <linearGradient
       x1="18.775953"
       y1="4.0378027"
       x2="18.203465"
       y2="45.962208"
       id="linearGradient2438"
       xlink:href="#linearGradient6036"
       gradientUnits="userSpaceOnUse"
       gradientTransform="matrix(0.4293444,0,0,-0.4293442,13.546752,34.733607)" />
    <linearGradient
       x1="20.578312"
       y1="3.5657206"
       x2="20.578312"
       y2="16.514757"
       id="linearGradient3270"
       xlink:href="#linearGradient3211"
       gradientUnits="userSpaceOnUse" />
    <linearGradient
       id="linearGradient3211">
      <stop
         id="stop3213"
         style="stop-color:#ffffff;stop-opacity:1"
         offset="0" />
      <stop
         id="stop3215"
         style="stop-color:#ffffff;stop-opacity:0"
         offset="1" />
    </linearGradient>
    <linearGradient
       x1="20.578312"
       y1="-0.048191871"
       x2="20.578312"
       y2="48.192867"
       id="linearGradient2435"
       xlink:href="#linearGradient3211"
       gradientUnits="userSpaceOnUse" />
  </defs>
  <g
     id="layer1">
    <path
       d="M 46,39.499867 C 46.0011,43.08962 36.151066,45.999868 24,45.999868 C 11.848934,45.999868 1.998867,43.08962 2.0000001,39.499867 C 1.998867,35.910116 11.848934,32.999868 24,32.999868 C 36.151066,32.999868 46.001133,35.910116 46,39.499867 L 46,39.499867 z"
       id="path23417"
       style="opacity:0.3;fill:url(#radialGradient2463);fill-opacity:1;fill-rule:evenodd;stroke:none;stroke-width:2;marker:none;visibility:visible;display:inline;overflow:visible" />
    <path
       d="M 44.5,24 C 44.5,12.637039 35.362959,3.5 24,3.5 C 12.637038,3.5 3.5000001,12.63704 3.5000001,24 C 3.4999981,35.36296 12.637039,44.5 24,44.5 C 35.362958,44.499998 44.5,35.362961 44.5,24 z M 31.5,24 C 31.5,28.12813 28.21073,31.5 24,31.5 C 19.70667,31.5 16.5,28.044687 16.5,24 C 16.5,19.872697 19.541467,16.5 24,16.5 C 28.458533,16.5 31.5,19.95447 31.5,24 z"
       id="path2781"
       style="fill:url(#linearGradient2458);fill-rule:nonzero;stroke:url(#linearGradient2460);stroke-width:1;stroke-miterlimit:4;stroke-opacity:1" />
    <path
       d="M 24,16 C 19.584,16 16,19.584 16,24 C 16,28.416 19.584,32 24,32 C 28.416,32 32,28.416 32,24 C 32,19.584 28.416,16 24,16 z M 24,20 C 26.208,20 28,21.792 28,24 C 28,26.208 26.208,28 24,28 C 21.792,28 20,26.208 20,24 C 20,21.792 21.792,20 24,20 z"
       id="path2474"
       style="opacity:0.5;fill:#ffffff;fill-opacity:1;fill-rule:nonzero;stroke:none;stroke-width:1;marker:none;visibility:visible;display:inline;overflow:visible;enable-background:accumulate" />
    <path
       d="M 24,16.5 C 19.86,16.5 16.5,19.86 16.5,24 C 16.5,28.14 19.86,31.5 24,31.5 C 28.14,31.5 31.5,28.14 31.5,24 C 31.5,19.86 28.14,16.5 24,16.5 z M 24,20.25 C 26.07,20.25 27.75,21.93 27.75,24 C 27.75,26.07 26.07,27.75 24,27.75 C 21.93,27.75 20.25,26.07 20.25,24 C 20.25,21.93 21.93,20.25 24,20.25 z"
       id="path3418"
       style="fill:none;stroke:url(#linearGradient2454);stroke-width:1;stroke-linecap:butt;stroke-linejoin:round;marker:none;stroke-miterlimit:4;stroke-dasharray:none;stroke-dashoffset:0;stroke-opacity:1;visibility:visible;display:inline;overflow:visible;enable-background:accumulate" />
    <path
       d="M 16.38116,5.5055006 L 20.847588,16.248907 C 21.89553,15.819768 23.037356,15.59174 24.241542,15.625763 C 24.273589,15.626669 24.303307,15.627148 24.335254,15.628411 L 24.677699,4.0132004 C 21.738719,3.8594466 19.118305,4.5136729 16.381159,5.5055006 L 16.38116,5.5055006 z"
       id="path3296"
       style="opacity:0.8;fill:url(#linearGradient2451);fill-opacity:1;fill-rule:nonzero;stroke:none" />
    <path
       d="M 23.5,3.4999993 L 23.5,16.468487 C 28.255058,16.468487 31.500316,19.756501 31.500316,24.000001 C 31.500316,28.2435 28.243501,31.500316 24.000001,31.500316 C 19.7565,31.500316 16.468487,28.2435 16.468487,24.000001 C 16.49754,20.644075 18.412654,18.145176 21.423602,16.947388 L 17.433594,4.5410149 C 15.469651,5.2045487 13.58402,6.2071679 11.828125,7.5039055 C 6.777563,11.238917 3.499999,17.240779 3.499999,24.000001 C 3.499999,35.316001 12.684,44.500001 24.000001,44.500001 C 35.316001,44.500001 44.500001,35.316001 44.500001,24.000001 C 44.500001,12.684003 35.567319,3.4999993 23.5,3.4999993 z"
       id="path3288"
       style="opacity:1;fill:url(#radialGradient3259);fill-opacity:1;fill-rule:nonzero;stroke:#ce5c00;stroke-width:1;stroke-linecap:round;stroke-linejoin:round;marker:none;marker-start:none;marker-mid:none;marker-end:none;stroke-miterlimit:4;stroke-dasharray:none;stroke-dashoffset:0;stroke-opacity:1;visibility:visible;display:inline;overflow:visible;enable-background:accumulate" />
    <path
       d="M 24,32.5 C 19.288571,32.5 15.5,28.711429 15.5,24 C 15.5,19.288571 19.288571,15.499999 24,15.499999 C 28.711431,15.499999 32.5,19.288571 32.5,24 C 32.5,28.711429 28.711431,32.5 24,32.5 L 24,32.5 L 24,32.5 L 24,32.5 z"
       id="path3281"
       style="opacity:0.4;fill:none;stroke:url(#linearGradient2438);stroke-width:0.99999982;stroke-miterlimit:4;stroke-opacity:1" />
    <path
       d="M 20.308867,16.844959 L 16.944226,6.3090282 M 24.5,5 L 24.5,15.97784"
       id="path3267"
       style="opacity:0.4;fill:none;fill-opacity:1;fill-rule:evenodd;stroke:url(#linearGradient3270);stroke-width:1px;stroke-linecap:butt;stroke-linejoin:miter;stroke-opacity:1" />
    <path
       d="M 24.000001,4.5000009 C 13.191429,4.5000009 4.4999995,13.191431 4.4999995,24.000001 C 4.4999995,34.808572 13.191429,43.499999 24.000001,43.499999 C 34.808573,43.499999 43.5,34.808572 43.5,24.000001 C 43.5,13.191431 34.808573,4.5000009 24.000001,4.5000009 L 24.000001,4.5000009 L 24.000001,4.5000009 z"
       id="path2561"
       style="opacity:0.4;fill:none;fill-opacity:1;fill-rule:evenodd;stroke:url(#linearGradient2435);stroke-width:1px;stroke-linecap:butt;stroke-linejoin:miter;stroke-opacity:1" />
  </g>
</svg>

<?xml version="1.0" encoding="UTF-8" standalone="no"?>
<!-- Created with Inkscape (http://www.inkscape.org/) -->
<svg id="svg3274" xmlns="http://www.w3.org/2000/svg" height="48" width="48" version="1.0" xmlns:xlink="http://www.w3.org/1999/xlink">
 <defs id="defs3276">
  <radialGradient id="radialGradient2463" gradientUnits="userSpaceOnUse" cy="41.636" cx="23.335" gradientTransform="matrix(.97227 0 0 .28724 1.3125 27.541)" r="22.627">
   <stop id="stop23421" offset="0"/>
   <stop id="stop23423" style="stop-opacity:0" offset="1"/>
  </radialGradient>
  <linearGradient id="linearGradient2460" y2="45.033" gradientUnits="userSpaceOnUse" x2="-21.916" gradientTransform="translate(50.265)" y1="3" x1="-21.916">
   <stop id="stop3774" style="stop-color:#b4b4b4" offset="0"/>
   <stop id="stop3776" style="stop-color:#969696" offset="1"/>
  </linearGradient>
  <linearGradient id="linearGradient2458" y2="14.203" gradientUnits="userSpaceOnUse" x2="35.391" gradientTransform="matrix(0 1.1714 -1.1714 0 51.06 -4.1145)" y1="32.416" x1="12.274">
   <stop id="stop3265" style="stop-color:#dedbde" offset="0"/>
   <stop id="stop3267" style="stop-color:#e6e6e6" offset=".5"/>
   <stop id="stop3269" style="stop-color:#d2d2d2" offset="1"/>
  </linearGradient>
  <linearGradient id="linearGradient2454" y2="32.509" gradientUnits="userSpaceOnUse" x2="21.448" gradientTransform="matrix(.9375 0 0 .9375 1.5 1.5)" y1="15.5" x1="21.448">
   <stop id="stop3430" style="stop-color:#aaa" offset="0"/>
   <stop id="stop3432" style="stop-color:#d4d4d4" offset="1"/>
  </linearGradient>
  <linearGradient id="linearGradient2451" y2="9.8622" spreadMethod="reflect" gradientUnits="userSpaceOnUse" x2="24.274" gradientTransform="matrix(.99960 .028243 -.028243 .99960 .69241 -.67083)" y1="10.775" x1="20.58">
   <stop id="stop3489" style="stop-color:#e6cde2" offset="0"/>
   <stop id="stop3491" style="stop-color:#e6cde2;stop-opacity:0" offset="1"/>
  </linearGradient>
  <radialGradient id="radialGradient3259" gradientUnits="userSpaceOnUse" cy="12.123" cx="8.8913" gradientTransform="matrix(0 3.3265 -4.3468 0 76.259 -11.265)" r="11">
   <stop id="stop3841" style="stop-color:#ffed8c" offset="0"/>
   <stop id="stop3843" style="stop-color:#fb9858" offset=".26238"/>
   <stop id="stop3845" style="stop-color:#dc572a" offset=".66094"/>
   <stop id="stop3847" style="stop-color:#9f3110" offset="1"/>
  </radialGradient>
  <linearGradient id="linearGradient2438" y2="45.962" gradientUnits="userSpaceOnUse" x2="18.203" gradientTransform="matrix(.42934 0 0 -.42934 13.547 34.734)" y1="4.0378" x1="18.776">
   <stop id="stop6038" style="stop-color:#fff" offset="0"/>
   <stop id="stop6040" style="stop-color:#fff;stop-opacity:0" offset="1"/>
  </linearGradient>
  <linearGradient id="linearGradient3270" y2="16.515" xlink:href="#linearGradient3211" gradientUnits="userSpaceOnUse" x2="20.578" y1="3.5657" x1="20.578"/>
  <linearGradient id="linearGradient3211">
   <stop id="stop3213" style="stop-color:#fff" offset="0"/>
   <stop id="stop3215" style="stop-color:#fff;stop-opacity:0" offset="1"/>
  </linearGradient>
  <linearGradient id="linearGradient2435" y2="48.193" xlink:href="#linearGradient3211" gradientUnits="userSpaceOnUse" x2="20.578" y1="-.048192" x1="20.578"/>
 </defs>
 <g id="layer1">
  <path id="path23417" style="opacity:.3;fill-rule:evenodd;fill:url(#radialGradient2463)" d="m46 39.5c0.001 3.59-9.849 6.5-22 6.5s-22.001-2.91-22-6.5c-0.0011-3.59 9.849-6.5 22-6.5s22.001 2.91 22 6.5z"/>
  <path id="path2781" style="stroke:url(#linearGradient2460);fill:url(#linearGradient2458)" d="m44.5 24c0-11.363-9.137-20.5-20.5-20.5s-20.5 9.137-20.5 20.5 9.137 20.5 20.5 20.5 20.5-9.137 20.5-20.5zm-13 0c0 4.128-3.289 7.5-7.5 7.5-4.293 0-7.5-3.455-7.5-7.5 0-4.127 3.041-7.5 7.5-7.5s7.5 3.454 7.5 7.5z"/>
  <path id="path2474" style="opacity:.5;fill:#fff" d="m24 16c-4.416 0-8 3.584-8 8s3.584 8 8 8 8-3.584 8-8-3.584-8-8-8zm0 4c2.208 0 4 1.792 4 4s-1.792 4-4 4-4-1.792-4-4 1.792-4 4-4z"/>
  <path id="path3418" style="stroke-linejoin:round;stroke:url(#linearGradient2454);fill:none" d="m24 16.5c-4.14 0-7.5 3.36-7.5 7.5s3.36 7.5 7.5 7.5 7.5-3.36 7.5-7.5-3.36-7.5-7.5-7.5zm0 3.75c2.07 0 3.75 1.68 3.75 3.75s-1.68 3.75-3.75 3.75-3.75-1.68-3.75-3.75 1.68-3.75 3.75-3.75z"/>
  <path id="path3296" style="opacity:.8;fill:url(#linearGradient2451)" d="m16.381 5.5055l4.467 10.744c1.048-0.43 2.189-0.658 3.394-0.624 0.032 0.001 0.061 0.001 0.093 0.002l0.343-11.615c-2.939-0.1536-5.56 0.5007-8.297 1.4925z"/>
  <path id="path3288" style="stroke-linejoin:round;stroke:#ce5c00;stroke-linecap:round;fill:url(#radialGradient3259)" d="m23.5 3.5v12.968c4.755 0 8 3.289 8 7.532 0 4.244-3.256 7.5-7.5 7.5s-7.532-3.256-7.532-7.5c0.03-3.356 1.945-5.855 4.956-7.053l-3.99-12.406c-1.964 0.6635-3.85 1.6662-5.606 2.9629-5.0504 3.7351-8.328 9.7371-8.328 16.496 0 11.316 9.184 20.5 20.5 20.5s20.5-9.184 20.5-20.5-8.933-20.5-21-20.5z"/>
  <path id="path3281" style="opacity:.4;stroke:url(#linearGradient2438);fill:none" d="m24 32.5c-4.711 0-8.5-3.789-8.5-8.5s3.789-8.5 8.5-8.5 8.5 3.789 8.5 8.5-3.789 8.5-8.5 8.5z"/>
  <path id="path3267" style="opacity:.4;stroke:url(#linearGradient3270);stroke-width:1px;fill:none" d="m20.309 16.845l-3.365-10.536m7.556-1.309v10.978"/>
  <path id="path2561" style="opacity:.4;stroke:url(#linearGradient2435);stroke-width:1px;fill:none" d="m24 4.5c-10.809 0-19.5 8.691-19.5 19.5s8.691 19.5 19.5 19.5 19.5-8.691 19.5-19.5-8.691-19.5-19.5-19.5z"/>
 </g>
</svg>
